X: 1
P: Geordie MacLeish
C: Athole Colln., SRSNH, Natalie MacMaster, etc.
C: arr. T. Traub 4-8-2007
R: Reel
K: D
M: 4/4
L: 1/8
c|"D"d2 cd D/D/D AF|"D"Adcd "A"egfe|"D"d2 cd D/D/D AF|"Em"EFGA "G"B2 B :|
c|"D"dD D/D/D FDDc|dD D/D/D "A"Agfe|"D"dD D/D/D AFdF|"Em"EFGA "A"B2 Bc|
"D"dD D/D/D FDDc|"D"dAFA "G"Bgfe|"D"dcBA BAGF|"Em"EFGA "A"B2 B |]
